static/img/chickensoft/go_dot_net.svg

<svg clip-rule="evenodd" fill-rule="evenodd" stroke-linejoin="round" stroke-miterlimit="2" viewBox="0 0 512 512" xmlns="http://www.w3.org/2000/svg" xmlns:xlink="http://www.w3.org/1999/xlink"><clipPath id="a"><path clip-rule="evenodd" d="m82.654 223.645 161.334 73.865h24.024l161.334-73.865h96.76v-233.882h-536.12v233.882z"/></clipPath><path d="m247.92 325.256v182.721l-170.274-66.593 1.731-98.331 115.441 53.389zm11.921 0v182.721l170.273-66.593-1.731-98.331-115.441 53.389zm-18.408-18.452-50.588 71.361-170.504-81.93 53.904-65.976zm24.894 0 50.589 71.361 170.503-81.93-53.904-65.976z" fill="#c7a172" fill-rule="nonzero" transform="translate(2.11992 -.47822)"/><g transform="matrix(1.03628 0 0 1.03628 -11.359 -16.65999)"><path d="m82.654 223.645 161.334 73.865h24.024l161.334-73.865h96.76v-233.882h-536.12v233.882z" fill="none"/><g clip-path="url(#a)"><path d="m57.054 429.196h39.843l-8.413-20.092h39.097l2.564-15.432h11.001v121.806h-11.001l-2.564-15.432h-39.097l8.413-20.091h-39.843z" fill="#c96e3d" transform="matrix(.88852356032 0 0 .88852356032 7.449667756 -155.50552021)"/><path d="m247.783 60.975c-6.461-3.85-9.867-11.657-7.825-19.278 2.463-9.194 11.927-14.658 21.121-12.194 9.193 2.463 14.657 11.927 12.194 21.12-2.043 7.622-8.896 12.68-16.416 12.784l-15.14 56.502c7.176 2.434 13.011 7.787 16.087 14.643h61.032c12.562 18.075 33.475 29.915 57.131 29.915 12.793 0 24.784-3.463 35.089-9.504v146.65c0 7.852-6.375 14.227-14.227 14.227h-230.665c-7.852 0-14.227-6.375-14.227-14.227v-152.834c0-7.852 6.375-14.227 14.227-14.227h42.014c3.261-7.271 9.627-12.852 17.407-15.053l-28.372-49.141c-7.291 1.847-15.22-1.265-19.165-8.098-4.759-8.243-1.93-18.799 6.312-23.558 8.243-4.758 18.798-1.93 23.557 6.313 3.945 6.833 2.676 15.255-2.569 20.647l28.126 48.715zm142.132 208.216c4.957 0 8.981 4.024 8.981 8.981s-4.024 8.981-8.981 8.981-8.981-4.024-8.981-8.981 4.024-8.981 8.981-8.981zm-27.896 0c4.957 0 8.981 4.024 8.981 8.981s-4.024 8.981-8.981 8.981-8.982-4.024-8.982-8.981 4.025-8.981 8.982-8.981zm0-28.246c4.957 0 8.981 4.025 8.981 8.981 0 4.957-4.024 8.982-8.981 8.982s-8.982-4.025-8.982-8.982c0-4.956 4.025-8.981 8.982-8.981zm27.896 0c4.957 0 8.981 4.025 8.981 8.981 0 4.957-4.024 8.982-8.981 8.982s-8.981-4.025-8.981-8.982c0-4.956 4.024-8.981 8.981-8.981zm0-28.245c4.957 0 8.981 4.024 8.981 8.981s-4.024 8.981-8.981 8.981-8.981-4.024-8.981-8.981 4.024-8.981 8.981-8.981zm-27.896 0c4.957 0 8.981 4.024 8.981 8.981s-4.024 8.981-8.981 8.981-8.982-4.024-8.982-8.981 4.025-8.981 8.982-8.981zm0-28.246c4.957 0 8.981 4.025 8.981 8.981 0 4.957-4.024 8.982-8.981 8.982s-8.982-4.025-8.982-8.982c0-4.956 4.025-8.981 8.982-8.981zm27.896 0c4.957 0 8.981 4.025 8.981 8.981 0 4.957-4.024 8.982-8.981 8.982s-8.981-4.025-8.981-8.982c0-4.956 4.024-8.981 8.981-8.981z" fill="#ffd739" transform="matrix(.99599616083 0 0 .99599616083 -11.004713431 17.576281584)"/><path d="m243.324 140.429h-51.221c3.367-7.504 9.937-13.265 17.967-15.537l-29.283-50.719c-7.526 1.906-15.709-1.307-19.781-8.359-4.912-8.508-1.993-19.402 6.515-24.314 8.507-4.912 19.402-1.993 24.314 6.515 4.071 7.052 2.762 15.746-2.652 21.31l29.03 50.281 14.768-55.118c-6.669-3.973-10.184-12.032-8.076-19.898 2.542-9.489 12.31-15.128 21.799-12.586 9.489 2.543 15.128 12.311 12.586 21.8-2.108 7.866-9.181 13.087-16.944 13.194l-15.626 58.318c7.407 2.511 13.43 8.037 16.604 15.113z" fill="#c96e3d" transform="matrix(.96499097563 0 0 .96499097563 10.961283655 16.07680312)"/><path d="m232.991 163.262c0-9.716-7.889-17.604-17.605-17.604h-35.209c-9.716 0-17.605 7.888-17.605 17.604v42.384c0 9.716 7.889 17.605 17.605 17.605h35.209c9.716 0 17.605-7.889 17.605-17.605zm-40.685 14.884h-7.732c-2.624 0-4.755 2.131-4.755 4.755v1.442c0 2.624 2.131 4.755 4.755 4.755h7.732v7.731c0 2.625 2.13 4.755 4.755 4.755h1.441c2.625 0 4.755-2.13 4.755-4.755v-7.731h7.732c2.624 0 4.755-2.131 4.755-4.755v-1.442c0-2.624-2.131-4.755-4.755-4.755h-7.732v-7.732c0-2.624-2.13-4.755-4.755-4.755h-1.441c-2.625 0-4.755 2.131-4.755 4.755z" fill="#c96e3d" transform="matrix(.99599616083 0 0 .99599616083 -11.004713431 17.576281584)"/><path d="m455.89 356.397c6.456-6.77 10.325-12.237 14.588-20.615 3.163-6.216 4.471-9.401 5.459-13.299.519-2.048 1.107-3.913 1.306-4.143.465-.539 9.334 6.235 18.311 13.985 2.542 2.194 5.746 4.898 7.121 6.007 3.342 2.699 10.274 8.586 13.621 11.568 1.49 1.328 4.026 3.406 5.635 4.618s3.629 2.939 4.488 3.837l1.563 1.633h-75.517z" fill="#ffaa5e" transform="matrix(.88852356032 0 0 .88852356032 7.449667756 -155.50552021)"/><circle cx="375.967" cy="94.942" fill="#ffd739" r="61.804" transform="matrix(.99599616083 0 0 .99599616083 -11.004713431 17.576281584)"/><circle cx="401.486" cy="82.836" fill="#c96e3d" r="16.116" transform="matrix(.99599616083 0 0 .99599616083 -11.004713431 17.576281584)"/><path d="m431.796 48.635 9.501-.206c1.349-5.407 6.183-9.47 12.02-9.597 6.99-.151 12.788 5.402 12.94 12.392.151 6.99-5.402 12.788-12.392 12.94-5.837.126-10.843-3.724-12.423-9.068h-9.646zm-7.443-7.729 8.983-9.381c-2.87-4.776-2.325-11.068 1.713-15.285 4.836-5.05 12.862-5.223 17.912-.387s5.224 12.862.388 17.911c-4.038 4.217-10.3 5.034-15.196 2.374l-9.042 9.441zm-10.1-2.732v-9.115c-5.407-1.348-9.47-6.182-9.597-12.019-.151-6.99 5.402-12.789 12.392-12.94s12.788 5.401 12.94 12.392c.126 5.837-3.725 10.842-9.068 12.423l.201 9.259z" fill="#ff4949" transform="matrix(.99599616083 0 0 .99599616083 -11.004713431 17.576281584)"/></g></g></svg>

<?xml version="1.0" encoding="UTF-8" standalone="no"?>
<!DOCTYPE svg PUBLIC "-//W3C//DTD SVG 1.1//EN" "http://www.w3.org/Graphics/SVG/1.1/DTD/svg11.dtd">
<svg width="100%" height="100%" viewBox="0 0 512 512" version="1.1" xmlns="http://www.w3.org/2000/svg" xmlns:xlink="http://www.w3.org/1999/xlink" xml:space="preserve" xmlns:serif="http://www.serif.com/" style="fill-rule:evenodd;clip-rule:evenodd;stroke-linejoin:round;stroke-miterlimit:2;">
    <g id="Package-Icons" serif:id="Package Icons" transform="matrix(1,0,0,1,0,2.34131)">
        <g id="Box" transform="matrix(1,0,0,1,2.11992,-2.81953)">
            <path d="M247.92,325.256L247.92,507.977L77.646,441.384L79.377,343.053L194.818,396.442L247.92,325.256ZM259.841,325.256L259.841,507.977L430.114,441.384L428.383,343.053L312.942,396.442L259.841,325.256ZM241.433,306.804L190.845,378.165L20.341,296.235L74.245,230.259L241.433,306.804ZM266.327,306.804L316.916,378.165L487.419,296.235L433.515,230.259L266.327,306.804Z" style="fill:rgb(199,161,114);fill-rule:nonzero;"/>
        </g>
        <g id="Clip-Window" serif:id="Clip Window" transform="matrix(1.03628,0,0,1.03628,-11.359,-19.0013)">
            <path d="M82.654,223.645L243.988,297.51L268.012,297.51L429.346,223.645L526.106,223.645L526.106,-10.237L-10.014,-10.237L-10.014,223.645L82.654,223.645Z" style="fill:none;"/>
            <clipPath id="_clip1">
                <path d="M82.654,223.645L243.988,297.51L268.012,297.51L429.346,223.645L526.106,223.645L526.106,-10.237L-10.014,-10.237L-10.014,223.645L82.654,223.645Z"/>
            </clipPath>
            <g clip-path="url(#_clip1)">
                <g id="GoDotNet" transform="matrix(1.03213,0,0,1.03213,-22.3182,0.982934)">
                    <g transform="matrix(0.860864,0,0,0.860864,28.8412,-151.617)">
                        <path d="M57.054,429.196L96.897,429.196L88.484,409.104L127.581,409.104L130.145,393.672L141.146,393.672L141.146,515.478L130.145,515.478L127.581,500.046L88.484,500.046L96.897,479.955L57.054,479.955L57.054,429.196Z" style="fill:rgb(201,110,61);"/>
                    </g>
                    <g transform="matrix(0.964991,0,0,0.964991,10.9613,16.0768)">
                        <path d="M247.783,60.975C241.322,57.125 237.916,49.318 239.958,41.697C242.421,32.503 251.885,27.039 261.079,29.503C270.272,31.966 275.736,41.43 273.273,50.623C271.23,58.245 264.377,63.303 256.857,63.407L241.717,119.909C248.893,122.343 254.728,127.696 257.804,134.552L318.836,134.552C331.398,152.627 352.311,164.467 375.967,164.467C388.76,164.467 400.751,161.004 411.056,154.963L411.056,301.613C411.056,309.465 404.681,315.84 396.829,315.84L166.164,315.84C158.312,315.84 151.937,309.465 151.937,301.613L151.937,148.779C151.937,140.927 158.312,134.552 166.164,134.552L208.178,134.552C211.439,127.281 217.805,121.7 225.585,119.499L197.213,70.358C189.922,72.205 181.993,69.093 178.048,62.26C173.289,54.017 176.118,43.461 184.36,38.702C192.603,33.944 203.158,36.772 207.917,45.015C211.862,51.848 210.593,60.27 205.348,65.662L233.474,114.377L247.783,60.975ZM389.915,269.191C394.872,269.191 398.896,273.215 398.896,278.172C398.896,283.129 394.872,287.153 389.915,287.153C384.958,287.153 380.934,283.129 380.934,278.172C380.934,273.215 384.958,269.191 389.915,269.191ZM362.019,269.191C366.976,269.191 371,273.215 371,278.172C371,283.129 366.976,287.153 362.019,287.153C357.062,287.153 353.037,283.129 353.037,278.172C353.037,273.215 357.062,269.191 362.019,269.191ZM362.019,240.945C366.976,240.945 371,244.97 371,249.926C371,254.883 366.976,258.908 362.019,258.908C357.062,258.908 353.037,254.883 353.037,249.926C353.037,244.97 357.062,240.945 362.019,240.945ZM389.915,240.945C394.872,240.945 398.896,244.97 398.896,249.926C398.896,254.883 394.872,258.908 389.915,258.908C384.958,258.908 380.934,254.883 380.934,249.926C380.934,244.97 384.958,240.945 389.915,240.945ZM389.915,212.7C394.872,212.7 398.896,216.724 398.896,221.681C398.896,226.638 394.872,230.662 389.915,230.662C384.958,230.662 380.934,226.638 380.934,221.681C380.934,216.724 384.958,212.7 389.915,212.7ZM362.019,212.7C366.976,212.7 371,216.724 371,221.681C371,226.638 366.976,230.662 362.019,230.662C357.062,230.662 353.037,226.638 353.037,221.681C353.037,216.724 357.062,212.7 362.019,212.7ZM362.019,184.454C366.976,184.454 371,188.479 371,193.435C371,198.392 366.976,202.417 362.019,202.417C357.062,202.417 353.037,198.392 353.037,193.435C353.037,188.479 357.062,184.454 362.019,184.454ZM389.915,184.454C394.872,184.454 398.896,188.479 398.896,193.435C398.896,198.392 394.872,202.417 389.915,202.417C384.958,202.417 380.934,198.392 380.934,193.435C380.934,188.479 384.958,184.454 389.915,184.454Z" style="fill:rgb(255,215,57);"/>
                    </g>
                    <g transform="matrix(0.934951,0,0,0.934951,32.2435,14.624)">
                        <path d="M243.324,140.429L192.103,140.429C195.47,132.925 202.04,127.164 210.07,124.892L180.787,74.173C173.261,76.079 165.078,72.866 161.006,65.814C156.094,57.306 159.013,46.412 167.521,41.5C176.028,36.588 186.923,39.507 191.835,48.015C195.906,55.067 194.597,63.761 189.183,69.325L218.213,119.606L232.981,64.488C226.312,60.515 222.797,52.456 224.905,44.59C227.447,35.101 237.215,29.462 246.704,32.004C256.193,34.547 261.832,44.315 259.29,53.804C257.182,61.67 250.109,66.891 242.346,66.998L226.72,125.316C234.127,127.827 240.15,133.353 243.324,140.429Z" style="fill:rgb(201,110,61);"/>
                    </g>
                    <g transform="matrix(0.964991,0,0,0.964991,10.9613,16.0768)">
                        <path d="M232.991,163.262C232.991,153.546 225.102,145.658 215.386,145.658L180.177,145.658C170.461,145.658 162.572,153.546 162.572,163.262L162.572,205.646C162.572,215.362 170.461,223.251 180.177,223.251L215.386,223.251C225.102,223.251 232.991,215.362 232.991,205.646L232.991,163.262ZM192.306,178.146L184.574,178.146C181.95,178.146 179.819,180.277 179.819,182.901L179.819,184.343C179.819,186.967 181.95,189.098 184.574,189.098L192.306,189.098L192.306,196.829C192.306,199.454 194.436,201.584 197.061,201.584L198.502,201.584C201.127,201.584 203.257,199.454 203.257,196.829L203.257,189.098L210.989,189.098C213.613,189.098 215.744,186.967 215.744,184.343L215.744,182.901C215.744,180.277 213.613,178.146 210.989,178.146L203.257,178.146L203.257,170.414C203.257,167.79 201.127,165.659 198.502,165.659L197.061,165.659C194.436,165.659 192.306,167.79 192.306,170.414L192.306,178.146Z" style="fill:rgb(201,110,61);"/>
                    </g>
                    <g transform="matrix(0.860864,0,0,0.860864,28.8412,-151.617)">
                        <path d="M455.89,356.397C462.346,349.627 466.215,344.16 470.478,335.782C473.641,329.566 474.949,326.381 475.937,322.483C476.456,320.435 477.044,318.57 477.243,318.34C477.708,317.801 486.577,324.575 495.554,332.325C498.096,334.519 501.3,337.223 502.675,338.332C506.017,341.031 512.949,346.918 516.296,349.9C517.786,351.228 520.322,353.306 521.931,354.518C523.54,355.73 525.56,357.457 526.419,358.355L527.982,359.988L452.465,359.988L455.89,356.397Z" style="fill:rgb(255,170,94);"/>
                    </g>
                    <g transform="matrix(0.964991,0,0,0.964991,10.9613,16.0768)">
                        <circle cx="375.967" cy="94.942" r="61.804" style="fill:rgb(255,215,57);"/>
                    </g>
                    <g transform="matrix(0.964991,0,0,0.964991,10.9613,16.0768)">
                        <circle cx="401.486" cy="82.836" r="16.116" style="fill:rgb(201,110,61);"/>
                    </g>
                    <g transform="matrix(0.964991,0,0,0.964991,10.9613,16.0768)">
                        <path d="M431.796,48.635L441.297,48.429C442.646,43.022 447.48,38.959 453.317,38.832C460.307,38.681 466.105,44.234 466.257,51.224C466.408,58.214 460.855,64.012 453.865,64.164C448.028,64.29 443.022,60.44 441.442,55.096L431.796,55.096L431.796,48.635ZM424.353,40.906L433.336,31.525C430.466,26.749 431.011,20.457 435.049,16.24C439.885,11.19 447.911,11.017 452.961,15.853C458.011,20.689 458.185,28.715 453.349,33.764C449.311,37.981 443.049,38.798 438.153,36.138L429.111,45.579L424.353,40.906ZM414.253,38.174L414.253,29.059C408.846,27.711 404.783,22.877 404.656,17.04C404.505,10.05 410.058,4.251 417.048,4.1C424.038,3.949 429.836,9.501 429.988,16.492C430.114,22.329 426.263,27.334 420.92,28.915L421.121,38.174L414.253,38.174Z" style="fill:rgb(255,73,73);"/>
                    </g>
                </g>
            </g>
        </g>
    </g>
</svg>
